X:39
T:Irish Lottery. THO5.039, The
M:6/8
L:1/8
B:Thompson's Complete Collection of 200 Favourite Dances Vol.5
F:https://www.libraryofdance.org/manuals/1780c-Thompson-Compleat-5.pdf
Z:vmp. Peter Dunk 2024
Q:3/8=110
K:D
DED F2G|ABA d2f|edc Bcd|AFD TE3|
DED F2G|ABA d2f|edc Be^G|A3 A,3:|
|:afd BdB|AFD E2D|Ggb afd|Bed c2A|
DED F2G|ABA d2f|edc Bec|d3 D3:|
W;
W:Right hands across, left hads back again ./.
W:Change side and back again ./:
W:Lead down the middle, up again and cast off :/.
W:Allemand with yout Partner :/:

